src/16/actions/guides.svg

<svg xmlns="http://www.w3.org/2000/svg" width="16" height="16" viewBox="0 0 16 16">
 <defs>
  <style id="current-color-scheme" type="text/css">
   .ColorScheme-Text { color:#565656; } .ColorScheme-Highlight { color:#5294e2; }
  </style>
 </defs>
 <path style="fill:currentColor" class="ColorScheme-Text" d="M 8.8457031 0.98242188 L 5.2226562 14.505859 L 7.1542969 15.023438 L 10.777344 1.5 L 8.8457031 0.98242188 z M 2 1.0039062 L 2 15.003906 L 4 15.003906 L 4 1.0039062 L 2 1.0039062 z M 12 1.0039062 L 12 15.003906 L 14 15.003906 L 14 1.0039062 L 12 1.0039062 z"/>
</svg>

<svg xmlns="http://www.w3.org/2000/svg" width="16" height="16"><defs><style id="current-color-scheme" type="text/css"></style></defs><path d="M8.846.982L5.223 14.506l1.931.517L10.777 1.5 8.846.982zM2 1.004v14h2v-14H2zm10 0v14h2v-14h-2z" fill="currentColor" color="#565656"/></svg>
